X:226
T:Polka
A:Auvergne
O:France
M:2/2
L:1/4
Q:1/4=240
K:G
ddBB|GG E A/2B/2|cAA B/2A/2|G/2F/2G/2A/2 B/2A/2B/2c/2|
dd BB|GG E A/2B/2|cAA B/2A/2|G/2F/2G/2A/2 G2:|
|:G B/2G/2 D/2G/2B/2G/2|D/2G/2B/2G/2 AF|F A/2F/2 D/2F/2A/2F/2|
D/2F/2A/2c/2BG|GB/2G/2 D/2G/2B/2G/2|D/2G/2B/2G/2 AF|
F A/2F/2 c B/2A/2|D E/2F/2 G2:||
